assets/1. P-Z/Right arrow curving left/Color/Right.Arrow.Curving.Left-color.svg

<svg width="100%" height="100%" viewBox="0 0 32 32" fill="none" xmlns="http://www.w3.org/2000/svg">
<g filter="url(#filter0_ii_18590_834)">
<rect x="2.0658" y="1.8125" width="27.875" height="27.875" rx="3.6" fill="url(#paint0_linear_18590_834)"/>
<rect x="2.0658" y="1.8125" width="27.875" height="27.875" rx="3.6" fill="url(#paint1_radial_18590_834)"/>
</g>
<g filter="url(#filter1_f_18590_834)">
<path d="M28.2533 4.3125V27.1875" stroke="url(#paint2_linear_18590_834)" stroke-width="1.5" stroke-linecap="round"/>
</g>
<g filter="url(#filter2_f_18590_834)">
<path d="M5.52966 3.625H27.3109" stroke="url(#paint3_linear_18590_834)" stroke-width="1.5" stroke-linecap="round"/>
</g>
<g filter="url(#filter3_f_18590_834)">
<path d="M18.8675 7.25001C22.7319 7.2519 25.8642 10.609 25.8642 14.75C25.8642 18.8921 22.7302 22.25 18.8642 22.25H12.1142C11.9762 22.25 11.8642 22.3619 11.8642 22.5V24.9101C11.8642 25.5927 11.0265 25.9204 10.5633 25.419L6.33434 20.841C6.06889 20.5536 6.06889 20.1105 6.33434 19.8232L10.5633 15.2452C11.0265 14.7438 11.8642 15.0715 11.8642 15.7541V18C11.8642 18.1381 11.9762 18.25 12.1142 18.25H18.8642C20.2656 18.25 21.8642 16.9474 21.8642 14.75C21.8642 12.5526 20.2656 11.25 18.8642 11.25H12.8642C12.3119 11.25 11.8642 10.8023 11.8642 10.25V8.25C11.8642 7.69772 12.3119 7.25 12.8642 7.25H18.8642L18.8675 7.25001Z" fill="#579FFF"/>
</g>
<g filter="url(#filter4_ii_18590_834)">
<path d="M18.8675 7.25001C22.7319 7.2519 25.8642 10.609 25.8642 14.75C25.8642 18.8921 22.7302 22.25 18.8642 22.25H12.1142C11.9762 22.25 11.8642 22.3619 11.8642 22.5V24.9101C11.8642 25.5927 11.0265 25.9204 10.5633 25.419L6.33434 20.841C6.06889 20.5536 6.06889 20.1105 6.33434 19.8232L10.5633 15.2452C11.0265 14.7438 11.8642 15.0715 11.8642 15.7541V18C11.8642 18.1381 11.9762 18.25 12.1142 18.25H18.8642C20.2656 18.25 21.8642 16.9474 21.8642 14.75C21.8642 12.5526 20.2656 11.25 18.8642 11.25H12.8642C12.3119 11.25 11.8642 10.8023 11.8642 10.25V8.25C11.8642 7.69772 12.3119 7.25 12.8642 7.25H18.8642L18.8675 7.25001Z" fill="#FCF2FF"/>
</g>
<defs>
<filter id="filter0_ii_18590_834" x="2.0658" y="0.8125" width="28.875" height="28.875" filterUnits="userSpaceOnUse" color-interpolation-filters="sRGB">
<feFlood flood-opacity="0" result="BackgroundImageFix"/>
<feBlend mode="normal" in="SourceGraphic" in2="BackgroundImageFix" result="shape"/>
<feColorMatrix in="SourceAlpha" type="matrix" values="0 0 0 0 0 0 0 0 0 0 0 0 0 0 0 0 0 0 127 0" result="hardAlpha"/>
<feOffset dx="1" dy="-1"/>
<feGaussianBlur stdDeviation="1.5"/>
<feComposite in2="hardAlpha" operator="arithmetic" k2="-1" k3="1"/>
<feColorMatrix type="matrix" values="0 0 0 0 0.188235 0 0 0 0 0.470588 0 0 0 0 0.843137 0 0 0 1 0"/>
<feBlend mode="normal" in2="shape" result="effect1_innerShadow_18590_834"/>
<feColorMatrix in="SourceAlpha" type="matrix" values="0 0 0 0 0 0 0 0 0 0 0 0 0 0 0 0 0 0 127 0" result="hardAlpha"/>
<feOffset dy="-1"/>
<feGaussianBlur stdDeviation="1.5"/>
<feComposite in2="hardAlpha" operator="arithmetic" k2="-1" k3="1"/>
<feColorMatrix type="matrix" values="0 0 0 0 0.27451 0 0 0 0 0.34902 0 0 0 0 0.8 0 0 0 1 0"/>
<feBlend mode="normal" in2="effect1_innerShadow_18590_834" result="effect2_innerShadow_18590_834"/>
</filter>
<filter id="filter1_f_18590_834" x="25.5033" y="1.5625" width="5.5" height="28.375" filterUnits="userSpaceOnUse" color-interpolation-filters="sRGB">
<feFlood flood-opacity="0" result="BackgroundImageFix"/>
<feBlend mode="normal" in="SourceGraphic" in2="BackgroundImageFix" result="shape"/>
<feGaussianBlur stdDeviation="1" result="effect1_foregroundBlur_18590_834"/>
</filter>
<filter id="filter2_f_18590_834" x="2.77966" y="0.875" width="27.2812" height="5.5" filterUnits="userSpaceOnUse" color-interpolation-filters="sRGB">
<feFlood flood-opacity="0" result="BackgroundImageFix"/>
<feBlend mode="normal" in="SourceGraphic" in2="BackgroundImageFix" result="shape"/>
<feGaussianBlur stdDeviation="1" result="effect1_foregroundBlur_18590_834"/>
</filter>
<filter id="filter3_f_18590_834" x="5.13525" y="6.25" width="21.7289" height="20.4116" filterUnits="userSpaceOnUse" color-interpolation-filters="sRGB">
<feFlood flood-opacity="0" result="BackgroundImageFix"/>
<feBlend mode="normal" in="SourceGraphic" in2="BackgroundImageFix" result="shape"/>
<feGaussianBlur stdDeviation="0.5" result="effect1_foregroundBlur_18590_834"/>
</filter>
<filter id="filter4_ii_18590_834" x="5.53525" y="6.85" width="20.7289" height="19.4116" filterUnits="userSpaceOnUse" color-interpolation-filters="sRGB">
<feFlood flood-opacity="0" result="BackgroundImageFix"/>
<feBlend mode="normal" in="SourceGraphic" in2="BackgroundImageFix" result="shape"/>
<feColorMatrix in="SourceAlpha" type="matrix" values="0 0 0 0 0 0 0 0 0 0 0 0 0 0 0 0 0 0 127 0" result="hardAlpha"/>
<feOffset dx="-0.6" dy="0.6"/>
<feGaussianBlur stdDeviation="0.5"/>
<feComposite in2="hardAlpha" operator="arithmetic" k2="-1" k3="1"/>
<feColorMatrix type="matrix" values="0 0 0 0 0.866667 0 0 0 0 0.819608 0 0 0 0 0.941176 0 0 0 1 0"/>
<feBlend mode="normal" in2="shape" result="effect1_innerShadow_18590_834"/>
<feColorMatrix in="SourceAlpha" type="matrix" values="0 0 0 0 0 0 0 0 0 0 0 0 0 0 0 0 0 0 127 0" result="hardAlpha"/>
<feOffset dx="0.4" dy="-0.4"/>
<feGaussianBlur stdDeviation="0.5"/>
<feComposite in2="hardAlpha" operator="arithmetic" k2="-1" k3="1"/>
<feColorMatrix type="matrix" values="0 0 0 0 1 0 0 0 0 0.988235 0 0 0 0 1 0 0 0 1 0"/>
<feBlend mode="normal" in2="effect1_innerShadow_18590_834" result="effect2_innerShadow_18590_834"/>
</filter>
<linearGradient id="paint0_linear_18590_834" x1="16.0033" y1="5.38701" x2="16.0033" y2="38.6397" gradientUnits="userSpaceOnUse">
<stop stop-color="#5CB7FF"/>
<stop offset="1" stop-color="#4878DD"/>
</linearGradient>
<radialGradient id="paint1_radial_18590_834" cx="0" cy="0" r="1" gradientUnits="userSpaceOnUse" gradientTransform="translate(27.722 3.90625) rotate(136.771) scale(2.14444 2.50466)">
<stop stop-color="#7BD7FF"/>
<stop offset="1" stop-color="#7BD7FF" stop-opacity="0"/>
</radialGradient>
<linearGradient id="paint2_linear_18590_834" x1="28.7533" y1="4.3125" x2="28.7533" y2="27.1875" gradientUnits="userSpaceOnUse">
<stop stop-color="#7FD9FF"/>
<stop offset="1" stop-color="#639DF4"/>
</linearGradient>
<linearGradient id="paint3_linear_18590_834" x1="28.4672" y1="3.87502" x2="2.93591" y2="3.87502" gradientUnits="userSpaceOnUse">
<stop stop-color="#7DD8FF"/>
<stop offset="1" stop-color="#5DB6FF"/>
</linearGradient>
</defs>
</svg>

<svg width="100%" height="100%" viewBox="0 0 32 32" xmlns="http://www.w3.org/2000/svg"><g filter="url(#a)"><rect width="27.875" height="27.875" x="2.066" y="1.813" fill="url(#b)" rx="3.6"/><rect width="27.875" height="27.875" x="2.066" y="1.813" fill="url(#c)" rx="3.6"/></g><g filter="url(#d)"><path stroke="url(#e)" stroke-linecap="round" stroke-width="1.5" d="M28.253 4.313v22.875"/></g><g filter="url(#f)"><path stroke="url(#g)" stroke-linecap="round" stroke-width="1.5" d="M5.53 3.625h21.78"/></g><g filter="url(#h)"><path fill="#579FFF" d="M18.868 7.25c3.864.002 6.996 3.359 6.996 7.5 0 4.142-3.134 7.5-7 7.5h-6.75a.25.25 0 0 0-.25.25v2.41a.75.75 0 0 1-1.3.509l-4.23-4.578a.75.75 0 0 1 0-1.018l4.23-4.578a.75.75 0 0 1 1.3.51V18c0 .138.112.25.25.25h6.75c1.402 0 3-1.303 3-3.5s-1.598-3.5-3-3.5h-6a1 1 0 0 1-1-1v-2a1 1 0 0 1 1-1h6.003"/></g><g filter="url(#i)"><path fill="#FCF2FF" d="M18.868 7.25c3.864.002 6.996 3.359 6.996 7.5 0 4.142-3.134 7.5-7 7.5h-6.75a.25.25 0 0 0-.25.25v2.41a.75.75 0 0 1-1.3.509l-4.23-4.578a.75.75 0 0 1 0-1.018l4.23-4.578a.75.75 0 0 1 1.3.51V18c0 .138.112.25.25.25h6.75c1.402 0 3-1.303 3-3.5s-1.598-3.5-3-3.5h-6a1 1 0 0 1-1-1v-2a1 1 0 0 1 1-1h6.003"/></g><defs><filter id="a" width="28.875" height="28.875" x="2.066" y=".813" color-interpolation-filters="sRGB" filterUnits="userSpaceOnUse"><feFlood flood-opacity="0" result="BackgroundImageFix"/><feBlend in="SourceGraphic" in2="BackgroundImageFix" result="shape"/><feColorMatrix in="SourceAlpha" result="hardAlpha" values="0 0 0 0 0 0 0 0 0 0 0 0 0 0 0 0 0 0 127 0"/><feOffset dx="1" dy="-1"/><feGaussianBlur stdDeviation="1.5"/><feComposite in2="hardAlpha" k2="-1" k3="1" operator="arithmetic"/><feColorMatrix values="0 0 0 0 0.188235 0 0 0 0 0.470588 0 0 0 0 0.843137 0 0 0 1 0"/><feBlend in2="shape" result="effect1_innerShadow_18590_834"/><feColorMatrix in="SourceAlpha" result="hardAlpha" values="0 0 0 0 0 0 0 0 0 0 0 0 0 0 0 0 0 0 127 0"/><feOffset dy="-1"/><feGaussianBlur stdDeviation="1.5"/><feComposite in2="hardAlpha" k2="-1" k3="1" operator="arithmetic"/><feColorMatrix values="0 0 0 0 0.27451 0 0 0 0 0.34902 0 0 0 0 0.8 0 0 0 1 0"/><feBlend in2="effect1_innerShadow_18590_834" result="effect2_innerShadow_18590_834"/></filter><filter id="d" width="5.5" height="28.375" x="25.503" y="1.563" color-interpolation-filters="sRGB" filterUnits="userSpaceOnUse"><feFlood flood-opacity="0" result="BackgroundImageFix"/><feBlend in="SourceGraphic" in2="BackgroundImageFix" result="shape"/><feGaussianBlur result="effect1_foregroundBlur_18590_834" stdDeviation="1"/></filter><filter id="f" width="27.281" height="5.5" x="2.78" y=".875" color-interpolation-filters="sRGB" filterUnits="userSpaceOnUse"><feFlood flood-opacity="0" result="BackgroundImageFix"/><feBlend in="SourceGraphic" in2="BackgroundImageFix" result="shape"/><feGaussianBlur result="effect1_foregroundBlur_18590_834" stdDeviation="1"/></filter><filter id="h" width="21.729" height="20.412" x="5.135" y="6.25" color-interpolation-filters="sRGB" filterUnits="userSpaceOnUse"><feFlood flood-opacity="0" result="BackgroundImageFix"/><feBlend in="SourceGraphic" in2="BackgroundImageFix" result="shape"/><feGaussianBlur result="effect1_foregroundBlur_18590_834" stdDeviation=".5"/></filter><filter id="i" width="20.729" height="19.412" x="5.535" y="6.85" color-interpolation-filters="sRGB" filterUnits="userSpaceOnUse"><feFlood flood-opacity="0" result="BackgroundImageFix"/><feBlend in="SourceGraphic" in2="BackgroundImageFix" result="shape"/><feColorMatrix in="SourceAlpha" result="hardAlpha" values="0 0 0 0 0 0 0 0 0 0 0 0 0 0 0 0 0 0 127 0"/><feOffset dx="-.6" dy=".6"/><feGaussianBlur stdDeviation=".5"/><feComposite in2="hardAlpha" k2="-1" k3="1" operator="arithmetic"/><feColorMatrix values="0 0 0 0 0.866667 0 0 0 0 0.819608 0 0 0 0 0.941176 0 0 0 1 0"/><feBlend in2="shape" result="effect1_innerShadow_18590_834"/><feColorMatrix in="SourceAlpha" result="hardAlpha" values="0 0 0 0 0 0 0 0 0 0 0 0 0 0 0 0 0 0 127 0"/><feOffset dx=".4" dy="-.4"/><feGaussianBlur stdDeviation=".5"/><feComposite in2="hardAlpha" k2="-1" k3="1" operator="arithmetic"/><feColorMatrix values="0 0 0 0 1 0 0 0 0 0.988235 0 0 0 0 1 0 0 0 1 0"/><feBlend in2="effect1_innerShadow_18590_834" result="effect2_innerShadow_18590_834"/></filter><linearGradient id="b" x1="16.003" x2="16.003" y1="5.387" y2="38.64" gradientUnits="userSpaceOnUse"><stop stop-color="#5CB7FF"/><stop offset="1" stop-color="#4878DD"/></linearGradient><linearGradient id="e" x1="28.753" x2="28.753" y1="4.313" y2="27.188" gradientUnits="userSpaceOnUse"><stop stop-color="#7FD9FF"/><stop offset="1" stop-color="#639DF4"/></linearGradient><linearGradient id="g" x1="28.467" x2="2.936" y1="3.875" y2="3.875" gradientUnits="userSpaceOnUse"><stop stop-color="#7DD8FF"/><stop offset="1" stop-color="#5DB6FF"/></linearGradient><radialGradient id="c" cx="0" cy="0" r="1" gradientTransform="matrix(-1.56249 1.46876 -1.71548 -1.82495 27.722 3.906)" gradientUnits="userSpaceOnUse"><stop stop-color="#7BD7FF"/><stop offset="1" stop-color="#7BD7FF" stop-opacity="0"/></radialGradient></defs></svg>
